X:55
T:La Casa di Vronovsky - Sessionversion
C:La Ciapa Rusa
M:4/4
L:1/8
K:C
AGAB c2 A2|BABc d4|e2 dc B2d2|1 cdcB c2 A2:|2cdcB A4:|
|:A2 ce d2 B2|G^FGA =F4|fedc BDGB|dcBc A4:|**
